Gurmukhi/0A6F.svg

<svg enable-background="new 0 0 336 592" viewBox="0 0 336 592" xmlns="http://www.w3.org/2000/svg"><path d="m189.427551 215.277649c-3.697281-15.726608-1.747543-29.860703 9.111649-41.948776 9.201401-10.242691 28.219055-14.618302 40.563644-9.474625 9.772537 4.07196 13.629303 11.325638 11.651886 22.02504-1.730087 1.120041-3.452057.25235-5.21965-.070587-22.810776-4.167572-36.844162 11.139694-34.573807 33.403686 1.458847 14.306046 9.017243 25.921402 17.062485 37.263565 1.059982 1.494354 2.307495 2.872467 3.23027 4.444092 2.340424 3.986053.355561 7.845154-4.287338 8.015137-5.991913.219391-11.99675.099823-17.996033.101013-19.331756.003815-38.664154.077026-57.994796-.071259-4.186325-.032104-5.85019 1.139221-5.870408 5.652314-.08905 19.893341 1.346161 39.568206 7.217865 58.697906 2.91121 9.484589 7.224289 18.222412 14.146866 25.546417 13.546677 14.332215 43.692047 15.88028 54.98259-8.690338 2.44487-5.320557 4.586258-10.722381 5.843872-16.425201.660919-2.99704 1.722153-4.2323 5.103897-3.38208 5.6362 1.416992 11.409348 2.287567 17.121796 3.403717 2.340835.457336 4.134872 1.285156 3.453766 4.296295-3.28888 14.539917-8.615097 27.917908-20.201432 38.125976-8.219512 7.241761-17.836273 11.049317-28.507507 12.008759-27.895355 2.508087-49.081528-8.804413-64.474701-31.85791-12.544838-18.787659-18.078048-39.779083-20.221634-61.959625-.723388-7.485138-1.012306-14.962677-.85894-22.45459.071129-3.474549-1.223648-4.504334-4.634865-4.722046-12.254081-.782013-16.61959-8.123108-11.09729-19.095108 5.578225-11.08313 14.272332-19.267227 25.785721-24.027542 9.829086-4.063965 16.291153.533508 16.574982 11.338958.274597 10.453873.274566 10.4478 10.788162 10.444306 14.832108-.004914 29.664276.019638 44.496231-.02684 1.599732-.005005 3.300797.432159 5.219422-.755463-6.864518-9.056412-13.350846-18.281586-16.416703-29.805191z"/></svg>

<svg version="1.1" id="Layer_1" xmlns="http://www.w3.org/2000/svg" xmlns:xlink="http://www.w3.org/1999/xlink" x="0px" y="0px"
	 width="100%" viewBox="0 0 336 592" enable-background="new 0 0 336 592" xml:space="preserve">
<path fill="#000000" opacity="1.000000" stroke="none" 
	d="
M189.427551,215.277649 
	C185.730270,199.551041 187.680008,185.416946 198.539200,173.328873 
	C207.740601,163.086182 226.758255,158.710571 239.102844,163.854248 
	C248.875381,167.926208 252.732147,175.179886 250.754730,185.879288 
	C249.024643,186.999329 247.302673,186.131638 245.535080,185.808701 
	C222.724304,181.641129 208.690918,196.948395 210.961273,219.212387 
	C212.420120,233.518433 219.978516,245.133789 228.023758,256.475952 
	C229.083740,257.970306 230.331253,259.348419 231.254028,260.920044 
	C233.594452,264.906097 231.609589,268.765198 226.966690,268.935181 
	C220.974777,269.154572 214.969940,269.035004 208.970657,269.036194 
	C189.638901,269.040009 170.306503,269.113220 150.975861,268.964935 
	C146.789536,268.932831 145.125671,270.104156 145.105453,274.617249 
	C145.016403,294.510590 146.451614,314.185455 152.323318,333.315155 
	C155.234528,342.799744 159.547607,351.537567 166.470184,358.861572 
	C180.016861,373.193787 210.162231,374.741852 221.452774,350.171234 
	C223.897644,344.850677 226.039032,339.448853 227.296646,333.746033 
	C227.957565,330.748993 229.018799,329.513733 232.400543,330.363953 
	C238.036743,331.780945 243.809891,332.651520 249.522339,333.767670 
	C251.863174,334.225006 253.657211,335.052826 252.976105,338.063965 
	C249.687225,352.603882 244.361008,365.981873 232.774673,376.189941 
	C224.555161,383.431702 214.938400,387.239258 204.267166,388.198700 
	C176.371811,390.706787 155.185638,379.394287 139.792465,356.340790 
	C127.247627,337.553131 121.714417,316.561707 119.570831,294.381165 
	C118.847443,286.896027 118.558525,279.418488 118.711891,271.926575 
	C118.783020,268.452026 117.488243,267.422241 114.077026,267.204529 
	C101.822945,266.422516 97.457436,259.081421 102.979736,248.109421 
	C108.557961,237.026291 117.252068,228.842194 128.765457,224.081879 
	C138.594543,220.017914 145.056610,224.615387 145.340439,235.420837 
	C145.615036,245.874710 145.615005,245.868637 156.128601,245.865143 
	C170.960709,245.860229 185.792877,245.884781 200.624832,245.838303 
	C202.224564,245.833298 203.925629,246.270462 205.844254,245.082840 
	C198.979736,236.026428 192.493408,226.801254 189.427551,215.277649 
z"/>
</svg>
